logos/allure-report-logo.svg

<svg viewBox="0 0 500 500" xmlns="http://www.w3.org/2000/svg">
	<path d="M167.221 355.463c24.716 18.972 53.872 28.14 82.795 28.117v75.826c-45.051.035-90.467-14.245-128.966-43.797a213.724 213.724 0 0 1-20.808-18.22l53.621-53.621a137.375 137.375 0 0 0 13.358 11.695Zm218.697-108.505h.05c-.193-34.979-13.825-69.564-39.81-95.485l53.621-53.621c40.567 40.468 61.808 94.494 62.018 149.106h.022v.657h-75.901Zm-53.127-107.189c-24.711-18.968-53.859-28.135-82.775-28.117V35.823c45.044-.03 90.45 14.25 128.942 43.797a213.626 213.626 0 0 1 20.821 18.232l-53.621 53.621a137.2 137.2 0 0 0-13.367-11.704ZM250.016 35.823v75.829c-35.206.023-70.066 13.663-96.152 39.811a137.34 137.34 0 0 0-11.705 13.368c-18.971 24.713-28.139 53.865-28.118 82.784.025 35.207 13.668 70.068 39.822 96.153l-53.621 53.621c-40.738-40.632-61.989-94.933-62.029-149.774-.032-45.047 14.248-90.457 43.798-128.953a213.87 213.87 0 0 1 18.231-20.821c40.633-40.733 94.935-61.981 149.774-62.018Zm107.837 294.578c18.124-23.612 27.301-51.275 28.065-78.916v-3.87h75.901v176.04h-.022c-.276 9.3-3.899 18.311-10.681 25.06a35.968 35.968 0 0 1-3.055 2.712c-16.142 12.779-40.057 9.46-53.416-7.414-4.855-6.133-7.647-13.215-8.459-20.358h-.268v-13.566c-38.698 32.435-87.086 49.279-135.902 49.317V383.58c35.204-.028 70.061-13.672 96.143-39.822a137.354 137.354 0 0 0 11.694-13.357Z" style="fill:#aaa"/>
	<path d="M167.221 355.463c24.716 18.972 53.872 28.14 82.795 28.117v75.826c-45.051.035-90.467-14.245-128.966-43.797a213.724 213.724 0 0 1-20.808-18.22l53.621-53.621a137.375 137.375 0 0 0 13.358 11.695Z" style="fill:#aaa"/>
	<path d="M385.918 246.958h.05c-.193-34.979-13.825-69.564-39.81-95.485l53.621-53.621c40.567 40.468 61.808 94.494 62.018 149.106h.022v.657h-75.901Z" style="fill:#d35ebe"/>
	<path d="M332.791 139.769c-24.711-18.968-53.859-28.135-82.775-28.117V35.823c45.044-.03 90.45 14.25 128.942 43.797a213.626 213.626 0 0 1 20.821 18.232l-53.621 53.621a137.2 137.2 0 0 0-13.367-11.704Z" style="fill:#fd5a3e"/>
	<path d="M250.016 35.823v75.829c-35.206.023-70.066 13.663-96.152 39.811a137.34 137.34 0 0 0-11.705 13.368c-18.971 24.713-28.139 53.865-28.118 82.784.025 35.207 13.668 70.068 39.822 96.153l-53.621 53.621c-40.738-40.632-61.989-94.933-62.029-149.774-.032-45.047 14.248-90.457 43.798-128.953a213.87 213.87 0 0 1 18.231-20.821c40.633-40.733 94.935-61.981 149.774-62.018Z" style="fill:#97cc64"/>
	<path d="M357.853 330.401c18.124-23.612 27.301-51.275 28.065-78.916v-3.87h75.901v176.04h-.022c-.276 9.3-3.899 18.311-10.681 25.06a35.968 35.968 0 0 1-3.055 2.712c-16.142 12.779-40.057 9.46-53.416-7.414-4.855-6.133-7.647-13.215-8.459-20.358h-.268v-13.566c-38.698 32.435-87.086 49.279-135.902 49.317V383.58c35.204-.028 70.061-13.672 96.143-39.822a137.354 137.354 0 0 0 11.694-13.357Z" style="fill:#ffd050"/>
</svg>

<?xml version="1.0" encoding="utf-8"?>
<svg viewBox="0 0 500 500" xmlns="http://www.w3.org/2000/svg">
  <path d="M 167.221 355.463 C 191.937 374.435 221.093 383.603 250.016 383.58 L 250.016 459.406 C 204.965 459.441 159.549 445.161 121.05 415.609 C 113.63 409.913 106.692 403.823 100.242 397.389 L 153.863 343.768 C 158.004 347.897 162.458 351.807 167.221 355.463 Z M 385.918 246.958 L 385.968 246.958 C 385.775 211.979 372.143 177.394 346.158 151.473 L 399.779 97.852 C 440.346 138.32 461.587 192.346 461.797 246.958 L 461.819 246.958 L 461.819 247.615 L 385.918 247.615 Z M 332.791 139.769 C 308.08 120.801 278.932 111.634 250.016 111.652 L 250.016 35.823 C 295.06 35.793 340.466 50.073 378.958 79.62 C 386.383 85.319 393.326 91.414 399.779 97.852 L 346.158 151.473 C 342.015 147.34 337.558 143.428 332.791 139.769 Z M 250.016 35.823 L 250.016 111.652 C 214.81 111.675 179.95 125.315 153.864 151.463 C 149.731 155.607 145.818 160.064 142.159 164.831 C 123.188 189.544 114.02 218.696 114.041 247.615 C 114.066 282.822 127.709 317.683 153.863 343.768 L 100.242 397.389 C 59.504 356.757 38.253 302.456 38.213 247.615 C 38.181 202.568 52.461 157.158 82.011 118.662 C 87.71 111.237 93.805 104.295 100.242 97.841 C 140.875 57.108 195.177 35.86 250.016 35.823 Z M 357.853 330.401 C 375.977 306.789 385.154 279.126 385.918 251.485 L 385.918 247.615 L 461.819 247.615 L 461.819 423.655 L 461.797 423.655 C 461.521 432.955 457.898 441.966 451.116 448.715 C 450.16 449.666 449.142 450.572 448.061 451.427 C 431.919 464.206 408.004 460.887 394.645 444.013 C 389.79 437.88 386.998 430.798 386.186 423.655 L 385.918 423.655 L 385.918 410.089 C 347.22 442.524 298.832 459.368 250.016 459.406 L 250.016 383.58 C 285.22 383.552 320.077 369.908 346.159 343.758 C 350.288 339.617 354.197 335.164 357.853 330.401 Z" style="fill: rgb(170, 170, 170);"/>
  <path d="M 167.221 355.463 C 191.937 374.435 221.093 383.603 250.016 383.58 L 250.016 459.406 C 204.965 459.441 159.549 445.161 121.05 415.609 C 113.63 409.913 106.692 403.823 100.242 397.389 L 153.863 343.768 C 158.004 347.897 162.458 351.807 167.221 355.463 Z" style="fill: rgb(170, 170, 170);"/>
  <path d="M 385.918 246.958 L 385.968 246.958 C 385.775 211.979 372.143 177.394 346.158 151.473 L 399.779 97.852 C 440.346 138.32 461.587 192.346 461.797 246.958 L 461.819 246.958 L 461.819 247.615 L 385.918 247.615 Z" style="fill: rgb(211, 94, 190);"/>
  <path d="M 332.791 139.769 C 308.08 120.801 278.932 111.634 250.016 111.652 L 250.016 35.823 C 295.06 35.793 340.466 50.073 378.958 79.62 C 386.383 85.319 393.326 91.414 399.779 97.852 L 346.158 151.473 C 342.015 147.34 337.558 143.428 332.791 139.769 Z" style="fill: rgb(253, 90, 62);"/>
  <path d="M 250.016 35.823 L 250.016 111.652 C 214.81 111.675 179.95 125.315 153.864 151.463 C 149.731 155.607 145.818 160.064 142.159 164.831 C 123.188 189.544 114.02 218.696 114.041 247.615 C 114.066 282.822 127.709 317.683 153.863 343.768 L 100.242 397.389 C 59.504 356.757 38.253 302.456 38.213 247.615 C 38.181 202.568 52.461 157.158 82.011 118.662 C 87.71 111.237 93.805 104.295 100.242 97.841 C 140.875 57.108 195.177 35.86 250.016 35.823 Z" style="fill: rgb(151, 204, 100);"/>
  <path d="M 357.853 330.401 C 375.977 306.789 385.154 279.126 385.918 251.485 L 385.918 247.615 L 461.819 247.615 L 461.819 423.655 L 461.797 423.655 C 461.521 432.955 457.898 441.966 451.116 448.715 C 450.16 449.666 449.142 450.572 448.061 451.427 C 431.919 464.206 408.004 460.887 394.645 444.013 C 389.79 437.88 386.998 430.798 386.186 423.655 L 385.918 423.655 L 385.918 410.089 C 347.22 442.524 298.832 459.368 250.016 459.406 L 250.016 383.58 C 285.22 383.552 320.077 369.908 346.159 343.758 C 350.288 339.617 354.197 335.164 357.853 330.401 Z" style="fill: rgb(255, 208, 80);"/>
</svg>
